X:1
T:Berceuse
T:Frédérick Chopin, Op. 57
T:"Cradle Song"
%%score { ( 1 3 4 ) | ( 2 5 ) }
L:1/8
Q:1/4=60
M:6/8
K:Db
V:1 treble nm="Piano"
V:3 treble 
V:4 treble 
V:2 bass 
V:5 bass 
V:1
"^As a lullaby" z6 | z6 |!p! f3 eaf | efd Bce | A d2 egb | agf ede | f3 eaf | efd Bce | A d2 egb | %9
 ad'b gc'a | fbg eaf | efd Bce | A d2 egb | ad'b gc'a |{/[fa]} A3{/[ea]} A{/a}A{/[fa]}A | %15
{/[ea]} A{/[fa]}A{/[da]}A{/[Ba]} A{/[ca]}A{/[ea]}A | %16
{/a} A{/[ca]}A{/[da]}A{/[=da]} A{/[ea]}A{/[=ea]}A | %17
{/[fa]} A{/[fb]}A{/[f=g]}A{/[_ga]} A{/[gb]}A{/[_g=g]}A | %18
!pp! Ta/8b/8a/8b/8a/8b/8a/8b/8a/8b/8a/8b/8a/8b/8a/8b/8 =g/4a/4d'/4b/4 f/4_g/4c'/4a/4 =e/4f/4b/4g/4 =d/4_e/4a/4f/4 | %19
 c/4d/4g/4e/4 =B/4c/4f/4d/4 =A/4_B/4e/4c/4 =G/4_A/4c/4B/4 G/4A/4B/4c/4 d/4e/4f/4_g/4 | %20
!pp!!<(! =g/4a/4=a/4_c'/4 b/4=c'/4=b/4d'/4 c'/4=d'/4_d'/4e'/4!8va(! =d'/4_f'/4e'/4=f'/4 =e'/4g'/4f'/4=g'/4 _g'/4a'/4=g'/4!<)!!p!b'/4 | %21
!p!!>(! a'/4f''/4e''/4d''/4 f'/4d''/4c''/4b'/4 d'/4b'/4a'/4g'/4 b/4g'/4f'/4e'/4 g/4e'/4d'/4c'/4 e/4c'/4b/4!>)!!pp!a/4!8va)! | %22
 [fa][d'f']>[gb] (3[c'e']/[fa]/[bd']/(3[eg]/[ac']/[df]/(6:4:6[gb]/4[ce]/4[fa]/4[Bd]/4[eg]/4[Ac]/4 | %23
 [df]>[Ac][df]/[AB]/ (8:6:8[df]/[GB]/[df]/[GB]/[df]/[GB]/[df]/[GB]/ | %24
!pp!!<(! (3[FA]/[^F=A]/[=GB]/(3[^G=B]/[Ac]/[_Bd]/(3[=B=d]/[ce]/[^c=e]/ (3[d=f]/[^d^f]/[e=g]/(3[=fa]/[^f=a]/[gb]/(3[^g=b]/[a=c']/!<)![_b_d']/ | %25
!8va(!!<(! (3[=b=d']/[c'e']/[^c'=e']/(3[d'f']/[^d'^f']/[=e'=g']/(3[=f'_a']/[_g'_b']/[f'a']/ (3[g'b']/[_e'a']/[g'b']/(3[_d'a']/[g'b']/[=c'a']/(3[g'b']/!<)!!p![_ba']/[g'b']/ | %26
 (3[af'a']/d''/ z/ z (3[f'd'']/a/ z/ (3[ag']/c''/ z/ (3[c'g']/e/ z/ (3[ge']/b'/ z/ | %27
 (3[d'b']/=e/ z/ (3[fd']/a'/ z/ (3[af']/d/ z/ (3[da]/f'/ z/ (3[a_e']/c/ z/!8va)! (3[Ag]/c'/ z/ | %28
 (3[ea]/F/ z/ (3[Fd]/a/ z/ (3[fd']/A/ z/ (3[Ag]/e'/ z/!8va(! (3[c'g']/e/ z/ (3[ge']/b'/ z/ | %29
 (3[d'b']/=e/ z/ (3[fd']/a'/ z/ (3[f'd'']/a/ z/ (3[ag']/_e''/ z/ (3[a'f'']/c'/ z/ (3[ge']/c''/ z/ | %30
!pp!{/[fd']} d''-(3d''/[=a'c'']/[a'c'']/(3[_a'_c'']/[=g'b']/[g'b']/ (3[_g'__b']/[f'a']/[f'a']/(3[_f'__a']/[e'g']/[e'g']/(3[=d'=f']/[_d'_f']/[d'_f']/!8va)! | %31
 (3[c'e']/[_c'__e']/[c'e']/(3[bd']/[=a=c']/[ac']/(3[_a_c']/[=gb]/[gb]/ (3[_g__b]/[fa]/[fa]/(3[_f__a]/[eg]/[eg]/(3[d=f]/[=ce]/[_B=e]/ | %32
 A A A A A A | A A A A A A | %34
 [Adf]/[dfa]/[fad']/[gae']/!8va(![ad'f']/[bd'g']/ [ac'f']/[gc'e']/!8va)![egc']/[dgb]/(3[cga]/[dgb]/[egb]/ | %35
 [efa]/[dfa]/!8va(!(3[fbd']/[fad']/[ad'g']/(3[ad'f']/[ad'a']/[d'a'd'']/ (3[e'a'd'']/[e'a'c'']/[d'e'b']/(3[c'e'a']/[gbe']/[ac'f']/!8va)!(3[egc']/[dgb]/[cga]/ | %36
 A/4a/4c/4B/4 B/4a/4d/4c/4 c/4a/4e/4d/4 B/4a/4d/4c/4 c/4a/4e/4d/4 d/4a/4f/4e/4 | %37
 d/4b/4f/4_f/4 e/4c'/4g/4=f/4 _f/4d'/4__a/4g/4 =f/4=d'/4_a/4=g/4 _g/4e'/4__b/4a/4 =g/4_f'/4_b/4=a/4 | %38
 [_a=f']!8va(! (6:4:4x/4 g'/x/4f'/(6:4:4x/4g'/x/4d'/ (6:4:4x/4 f'/x/4e'/(6:4:4x/4f'/x/4c'/(6:4:4x/4e'/x/4d'/!8va)! | %39
!pp! (6:4:4x/4 e'/x/4b/(6:4:4x/4d'/x/4c'/(6:4:4x/4d'/x/4a/ (6:4:4x/4 c'/x/4b/(6:4:4x/4c'/x/4g/(6:4:4x/4b/x/4a/ | %40
 (6:4:4x/4 f/x/4^f/(6:4:4x/4=g/x/4_a/(6:4:4x/4=a/x/4_b/ (6:4:4x/4 =b/x/4c'/(6:4:4x/4^c'/x/4=d'/(6:4:4x/4_e'/x/4=e'/ | %41
!8va(! (6:4:4x/4 f'/x/4^f'/(6:4:4x/4=g'/x/4_a'/(6:4:4x/4=a'/x/4_b'/ (6:4:4x/4 =b'/x/4c''/(6:4:4x/4^c''/x/4=d''/(6:4:4x/4_e''/x/4=e''/!8va)! | %42
!8va(! (15:8:22(1:1:5_a'/4f''/4_f''/4e''/4d''/4(1:1:5c''/4b'/4a'/4g'/4=f'/4(1:1:5_f'/4e'/4d'/4c'/4b/4!8va)!(0:0:7a/4g/4f/4_f/4e/4d/4c/4!<(! __B2!p! A!<)! | %43
!>(! x/ (3F/4A/4d/4(3f/4b/4!pp!a/4(3a/4a/4b'/4!>)!a'!p!!>(! x/ (3G/4A/4e/4(3g/4b/4!pp!a/4(3a/4a/4b'/4!>)!a' | %44
!8va(! (3d''/4b'/4d''/4(3a'/4d''/4f'/4(3d''/4g'/4d''/4(3f'/4d''/4d'/4(3d''/4f'/4c''/4(3d'/4_c''/4f'/4 (3b'/4=c'/4__b'/4(3_g'/4a'/4c'/4(3=g'/4e'/4_g'/4(3__b/4f'/4c'/4(3e'/4a/4g'/4(3g/4c'/4a/4!8va)! | %45
!pp! (3d'/4b/4d'/4(3a/4d'/4f/4(3d'/4g/4d'/4(3f/4d'/4d/4(3d'/4f/4c'/4(3d/4_c'/4f/4 (3b/4=c/4__b/4(3_g/4a/4c/4(3=g/4e/4_g/4(3__B/4f/4c/4(3e/4A/4g/4(3G/4c/4A/4 | %46
 [Fd]2 d c/d/e/g/b/B/ | A2 A G/A/c/e/g/G/ | F z/ a/=g/a/!<(! b/a/c/!p!_g/c'/!<)!g'/ | %49
!>(! f'/e'/d'/!pp!f/a/c'/ b/g/e/B/c/!>)!e/ |!p! A3 (3=G/A/B/(3c/d/e/(3f/_g/b/ | %51
 a3 (3=g/!>(!a/c'/(3b/a/!p!_g/(3e/B/!>)!c/ | %52
 (3B/A/e/(3d/e/g/(3f/g/b/!8va(! (3a/a'/b/(3a'/d'/a'/!pp!(3c'/a'/f'/ | %53
 (3e'/d'/d''/(3c''/b'/a'/(3f'/e'/d'/!8va)! (3c'/b/a/(3f/e/d/(3c/B/A/ | d3 _c3 | x _c A c3 | %56
 x _c A x3 |!8va(! e'/g'/f'/e'/_c'/a/!8va)! e/g/f/d/_c/A/ | B3- B/d/g/a/b/_c/ | %59
 B/d/g/a/b/d'/!8va(! g'/a'/b'/g'/e'/!pp!d'/ |"_dim." f'/e'/b/c'/e'/d'/ a/b/d'/c'/g/a/!8va)! | %61
 c'/b/f/g/b/a/ e/f/a/g/d/e/ | f3!pp! eaf | efd BdA | BdA GdF | z2 z FAE | EAD z2 z | z6 | [CE]6 | %69
 D2 z z2 z |] %70
V:2
!pp!!ped! D,,A,[DF]!ped-up!!ped! [CG] A,2!ped-up! |!ped! D,,A,[DF]!ped-up!!ped! [CG] A,2!ped-up! | %2
!ped! D,,A,[DF]!ped-up!!ped! [CG] A,2!ped-up! |!ped! D,,A,[DF]!ped-up!!ped! [CG] A,2!ped-up! | %4
!ped! D,,A,[DF]!ped-up!!ped! [CG] A,2!ped-up! |!ped! D,,A,[DF]!ped-up!!ped! [CG] A,2!ped-up! | %6
!ped! D,,A,[DF]!ped-up!!ped! [EG] A,2!ped-up! |!ped! D,,A,D!ped-up!!ped! E A,2!ped-up! | %8
!ped! D,,A,[DF]!ped-up!!ped! [EG] A,2!ped-up! |!ped! D,,A,[DF]!ped-up!!ped! [EG] A,2!ped-up! | %10
!ped! D,,A,[DF]!ped-up!!ped! [EG] A,2!ped-up! |!ped! D,,A,[DF]!ped-up!!ped! E A,2!ped-up! | %12
!ped! D,,A,[DF]!ped-up!!ped! [EG] A,2!ped-up! |!ped! D,,A,[DF]!ped-up!!ped! [EG] A,2!ped-up! | %14
!ped! D,,A,[DF]!ped-up!!ped! [CG] A,2!ped-up! |!ped! D,,A,[DF]!ped-up!!ped! [EG] A,2!ped-up! | %16
!ped! D,,A,[DF]!ped-up!!ped! [CG] A,2!ped-up! |!ped! D,,A,[DF]!ped-up!!ped! [CG] A,2!ped-up! | %18
!pp!!ped! D,,A,[DF]!ped-up!!ped! [E_G] A,2!ped-up! | %19
!ped! D,,A,[DF]!ped-up!!ped! [E_G] A,2!ped-up! |!ped! D,,A,[DF]!ped-up!!ped! [C_G] A,2!ped-up! | %21
!ped! D,,A,[DF]!ped-up!!ped! [EG] A,2!ped-up! |!ped! D,,A,[DF]!ped-up!!ped! [EG] A,2!ped-up! | %23
!ped! D,,A,[DF]!ped-up!!ped! E A,2!ped-up! |!ped! D,,A,!ped-up![DF]!ped! [CG] A,2!ped-up! | %25
!ped! D,,A,[DF]!ped-up!!ped! [CG] A,2!ped-up! |!pp!!ped! D,,A,[DF]!ped-up!!ped! [EG] A,2!ped-up! | %27
!ped! D,,A,[DF]!ped-up!!ped! [_EG] A,2!ped-up! |!ped! D,,A,[DF]!ped-up!!ped! [CG] A,2!ped-up! | %29
!ped! D,,A,[DF]!ped-up!!ped! [CG] A,2!ped-up! |!ped! D,,A,[DF]!ped-up!!ped! [=CG] A,2!ped-up! | %31
!ped! D,,A,[DF]!ped-up!!ped! [CG] A,2!ped-up! |!pp!!ped! D,,A,[DF]!ped-up!!ped! [CG] A,2!ped-up! | %33
!ped! D,,A,[DF]!ped-up!!ped! [CG] A,2!ped-up! |!ped! D,,A,[DF]!ped-up!!ped! [EG] A,2!ped-up! | %35
!ped! D,,A,[DF]!ped-up!!ped! [EG] A,2!ped-up! |!ped! D,,A,[DF]!ped-up!!ped! [CG] A,2!ped-up! | %37
!ped! D,,A,[DF]!ped-up!!ped! [CG] A,2!ped-up! |!ped! D,,A,[DF]!ped-up!!ped! [CG] A,2!ped-up! | %39
!ped! D,,A,[DF]!ped-up!!ped! [EG] A,2!ped-up! |!ped! D,,A,[DF]!ped-up!!ped! [CG] A,2!ped-up! | %41
!ped! D,,A,[DF]!ped-up!!ped! [CG] A,2!ped-up! |!ped! D,,A,[D=F]!ped-up!!ped! [CG] A,2!ped-up! | %43
!ped! D,,A,[DF]!ped-up!!ped! [CG] A,2!ped-up! |!ped! D,,A,[DF]!ped-up!!ped! [EG] A,2!ped-up! | %45
!ped! D,,A,[DF]!ped-up!!ped! [EG] A,2!ped-up! |!ped! D,,A,[DF]!ped-up!!ped! [EG] A,2!ped-up! | %47
!ped! D,,A,[DF]!ped-up!!ped! E A,2!ped-up! |!ped! D,,A,[DF]!ped-up!!ped! [E_G] A,2!ped-up! | %49
!ped! D,,A,[DF]!ped-up!!ped! [EB] A,2!ped-up! |!pp!!ped! D,,A,[DF]!ped-up!!ped! [E_B] A,2!ped-up! | %51
!ped! D,,A,[DF]!ped-up!!ped! [E_B] A,2!ped-up! |!pp!!ped! D,,A,[DF]!ped-up!!ped! [EG] A,2!ped-up! | %53
!ped! D,,A,[DF]!ped-up!!ped! [EG] A,2!ped-up! |!ped! D,,A,[DF] [DF] A,2!ped-up! | %55
!ped! D,,A,[DF] [DF] A,2!ped-up! |!ped! D,,A,[DF]!ped-up! [DF]!ped! A,2!ped-up! | %57
!pp!!ped! D,,A,[DF]!ped-up! [DF]!ped! A,2!ped-up! |!ped! D,,A,[DG] [DG] A,2!ped-up! | %59
!ped! D,,A,[DG] [DG] A,2!ped-up! |!ped! D,,A,[CG] [CG] A,2!ped-up! | %61
!ped! D,,A,[CG]!ped-up!!ped! [CG] A,2!ped-up! |!pp!!ped! D,,A,[DF]!ped-up!!ped! [DF] A,2!ped-up! | %63
!ped! D,,A,[DF]!ped-up!!ped! [DF] A,2!ped-up! |!ped! D,,A,[DF]!ped-up!!ped! D A,2!ped-up! | %65
!pp!!ped! D,,A,D!ped-up!!ped! D A,2!ped-up! |!ped! D,,A,F!ped-up! [DF] A,2 | %67
!ped! D,,A,[I:staff -1][DF] [DF][I:staff +1] A,2!ped-up! |!pp!!ped!!>(! [G,A,]6!>)! | %69
!pp! F,2 z z2!ped-up! z |] %70
V:3
 x6 | x6 | x6 | x6 | x6 | x3 x2 c | dcB cBA | BAF GFE | GFB cBA | fcd eBc | dAB cGA | BFA- A=G_G- | %12
 G/FE/D/B/ d/cB/A/g/ | g/fe/f/d/ g/=d/e/A/=e/!pp!A/ | x6 | x6 | x6 | x6 | f2 x4 | x6 | %20
 x3!8va(! x3 | x6!8va)! | x6 | x6 | x6 |!8va(! x6 | x6 | x5!8va)! x | x4!8va(! x2 | x6 | x6!8va)! | %31
 x6 | (3A/[_eg]/[df]/(3A/[df]/[ce]/(3A/[ce]/[df]/ (3A/[fa]/[eg]/(3A/[eg]/[=df]/(3A/[df]/[eg]/ | %33
 (3A/[eg]/[=e=g]/(3A/[eg]/[fa]/(3A/[fa]/[_g__b]/ (3A/[gb]/[fa]/(3A/[fa]/[e=g]/(3A/[_f__a]/[_e_g]/ | %34
 x2!8va(! x2!8va)! x2 | x!8va(! x4!8va)! x | x6 | x6 | %38
 x!8va(! (3b/4g'/4b/4(3a/4f'/4a/4(3b/4g'/4b/4(3f/4d'/4f/4 (3a/4f'/4a/4(3g/4e'/4g/4(3a/4f'/4a/4(3e/4c'/4e/4(3g/4e'/4g/4(3f/4d'/4f/4!8va)! | %39
 (3g/4e'/4g/4(3d/4b/4d/4(3f/4d'/4f/4(3e/4c'/4e/4(3f/4d'/4f/4(3c/4a/4c/4 (3e/4c'/4e/4(3d/4b/4d/4(3e/4c'/4e/4(3B/4g/4B/4(3d/4b/4d/4(3c/4a/4c/4 | %40
 (3A/4f/4A/4(3=A/4^f/4A/4(3B/4=g/4B/4(3=B/4_a/4B/4(3c/4=a/4c/4(3d/4b/4c/4 (3=d/4=b/4_d/4(3e/4c'/4e/4(3=e/4=c'/4e/4(3=f/4=d'/4f/4(3^f/4e'/4f/4(3=g/4=e'/4g/4 | %41
!8va(! (3_a/4f'/4a/4(3=a/4^f'/4a/4(3b/4=g'/4b/4(3=b/4_a'/4b/4(3c'/4=a'/4c'/4(3d'/4b'/4c'/4 (3=d'/4=b'/4_d'/4(3e'/4c''/4e'/4(3=e'/4=c''/4e'/4(3=f'/4=d''/4f'/4(3^f'/4e''/4f'/4(3=g'/4=e''/4g'/4!8va)! | %42
!8va(! x2!8va)! x4 | A2 x A2 x |!8va(! x6!8va)! | x6 | x6 | x6 | x6 | x6 | x6 | x6 | x3!8va(! x3 | %53
 x3!8va)! x3 | x3 _c/d/f/b/a/e/ | _c/F/c/e/A/d/ c/d/f/b/a/e/ | _c/F/c/e/A/d/ c/d/f/!p!a/_c'/d'/ | %57
!8va(! x3!8va)! x3 | x6 | x3!8va(! x3 | x6!8va)! | x6 | x6 | x6 | x6 | x6 | x6 | x6 | x6 | x6 |] %70
V:4
 x6 | x6 | x6 | x6 | x6 | x6 | x6 | x6 | x6 | x6 | x6 | x6 | x6 | x6 | x6 | x6 | x6 | x6 | x6 | %19
 x6 | x3!8va(! x3 | x6!8va)! | x6 | x6 | x6 |!8va(! x6 | x6 | x5!8va)! x | x4!8va(! x2 | x6 | %30
 x6!8va)! | x6 | x6 | x6 | x2!8va(! x2!8va)! x2 | x!8va(! x4!8va)! x | x6 | x6 | x!8va(! x5!8va)! | %39
 x6 | x6 |!8va(! x6!8va)! |!8va(! x2!8va)! x4 | x6 |!8va(! x6!8va)! | x6 | x6 | x6 | x6 | x6 | x6 | %51
 x6 | x3!8va(! x3 | x3!8va)! x3 | x6 | x3/2 ed/ x x2 | x3/2 ed/ x x2 |!8va(! x3!8va)! x3 | x6 | %59
 x3!8va(! x3 | x6!8va)! | x6 | x6 | x6 | x6 | x6 | x6 | x6 | x6 | x6 |] %70
V:5
 x6 | x6 | x6 | x6 | x6 | x6 | x6 | x6 | x6 | x6 | x6 | x6 | x6 | x6 | x6 | x6 | x6 | x6 | x6 | %19
 x6 | x6 | x6 | x6 | x6 | x6 | x6 | x6 | x6 | x6 | x6 | x6 | x6 | x6 | x6 | x6 | x6 | x6 | x6 | %38
 x6 | x6 | x6 | x6 | x6 | x6 | x6 | x6 | x6 | x6 | x6 | x6 | x6 | x6 | x6 | x6 | x6 | x6 | x6 | %57
 x6 | x6 | x6 | x6 | x6 | x6 | x6 | x6 | x6 | x6 | x6 | [A,,,A,,]6 | [D,,A,,]2 z z2 z |] %70

